assets/Boxing glove/Flat/boxing_glove_flat.svg

<svg width="32" height="32" viewBox="0 0 32 32" fill="none" xmlns="http://www.w3.org/2000/svg">
<path d="M22.58 20.82L20.62 22.22H14.18L19.69 17.23C19.22 16.64 18.93 15.9 18.93 15.08V11.06C18.93 9.17003 20.46 7.64001 22.35 7.64001C24.24 7.64001 25.77 9.17003 25.77 11.06L25.72 14.81C25.71 15.78 25.51 16.73 25.13 17.62C24.6 18.91 23.71 20.01 22.58 20.82Z" fill="#CA0B4A"/>
<path d="M13 2C9.13401 2 6 5.13401 6 9V16C6 18.3787 7.18652 20.4804 9 21.7453V24H22V21.0005C22.6279 20.1647 23 19.1258 23 18V9C23 5.13401 19.866 2 16 2H13Z" fill="#F8312F"/>
<path d="M22 23H9V29.049C9 29.5798 9.39059 30 9.86131 30H21.1387C21.6194 30 22 29.5687 22 29.049V23Z" fill="#9B9B9B"/>
<path d="M17.688 25H13.312C13.1396 25 13 25.1564 13 25.3497V27.6503C13 27.8436 13.1396 28 13.312 28H17.688C17.8604 28 18 27.8436 18 27.6503V25.3497C18 25.1564 17.8604 25 17.688 25Z" fill="#D3D3D3"/>
</svg>

<svg xmlns="http://www.w3.org/2000/svg" width="32" height="32" fill="none"><path fill="#CA0B4A" d="m22.58 20.82-1.96 1.4h-6.44l5.51-4.99c-.47-.59-.76-1.33-.76-2.15v-4.02c0-1.89 1.53-3.42 3.42-3.42s3.42 1.53 3.42 3.42l-.05 3.75a7.33 7.33 0 0 1-.59 2.81 7.407 7.407 0 0 1-2.55 3.2Z"/><path fill="#F8312F" d="M13 2a7 7 0 0 0-7 7v7a6.992 6.992 0 0 0 3 5.745V24h13v-3c.628-.835 1-1.874 1-3V9a7 7 0 0 0-7-7h-3Z"/><path fill="#9B9B9B" d="M22 23H9v6.049c0 .53.39.951.861.951H21.14c.48 0 .861-.431.861-.951V23Z"/><path fill="#D3D3D3" d="M17.688 25h-4.376c-.172 0-.312.156-.312.35v2.3c0 .194.14.35.312.35h4.376c.172 0 .312-.156.312-.35v-2.3c0-.194-.14-.35-.312-.35Z"/></svg>
